X:104
T:Haste to the Wedding
R:Jig
M:6/8
K:D
B|:AFA Aaf|ede fdB|AFA AdF|EFE E2A|
 |AFA Aaf|ede fdB|AFA faf|1 ded d2 B:|2 ded d2 a|
 |:afa afa|bgb bgb|afa agf|gfg efg|
 |a3 f3|ede fdB|AFA faf|1 ded d2 a:|2 ded d2 B|
